app/images/icon/icon-svg/surgery.svg

<svg width="100" height="110" viewBox="0 0 100 110" fill="none" xmlns="http://www.w3.org/2000/svg">
<path d="M96.0467 1.78141C95.5839 0.855437 94.7041 0.208329 93.6823 0.0418251C92.6601 -0.124249 91.6209 0.210047 90.8881 0.941374C55.2462 36.5042 66.1085 25.6576 53.2316 38.5347L6.38479 78.1741C-1.6684 84.9883 -2.17822 97.2565 5.28092 104.715C12.7648 112.199 25.0222 111.648 31.8222 103.612L67.7166 61.1908C70.334 58.0972 70.6674 53.7247 68.8095 50.3018L73.6447 45.4666L75.9236 47.7452C77.1796 49.0012 79.2143 49.0038 80.4735 47.7527L90.1456 38.1443C99.7486 28.5412 102.12 13.9282 96.0467 1.78141ZM26.9019 99.4479C22.5077 104.641 14.6436 104.962 9.8384 100.158C5.02741 95.3463 5.36149 87.4829 10.5482 83.094L20.6708 74.5289L35.4671 89.3251L26.9019 99.4479ZM39.6451 84.3878L25.6083 70.3512L30.5456 66.1736L43.8228 79.4507L39.6451 84.3878ZM48.0006 74.5132L35.483 61.9958L40.4203 57.8179L52.1782 69.5759L48.0006 74.5132ZM62.7964 57.0273L56.3561 64.6386L45.3578 53.6403L55.2327 45.2846L62.6151 52.6671C63.7909 53.8427 63.8707 55.758 62.7964 57.0273ZM64.5298 45.4666L59.9723 40.9091L64.5298 36.3514C65.0168 36.8385 68.5826 40.404 69.0875 40.9089L64.5298 45.4666ZM85.5958 33.5793L78.2102 40.9164L69.0898 31.7961L91.9629 8.97372C94.4442 17.613 92.1195 27.0556 85.5958 33.5793Z" fill="#FFC59E"/>
</svg>

<svg width="100" height="110" fill="none" xmlns="http://www.w3.org/2000/svg"><path d="M96.047 1.781a3.223 3.223 0 00-5.159-.84c-35.642 35.563-24.78 24.717-37.656 37.594L6.385 78.175c-8.053 6.813-8.563 19.082-1.104 26.54 7.484 7.484 19.741 6.933 26.541-1.103l35.895-42.421c2.617-3.094 2.95-7.466 1.093-10.89l4.835-4.834 2.279 2.278a3.222 3.222 0 004.55.008l9.672-9.609a31.462 31.462 0 005.9-36.363zM26.902 99.448c-4.394 5.193-12.258 5.514-17.064.71-4.81-4.812-4.477-12.675.71-17.064l10.123-8.565 14.796 14.796-8.565 10.123zm12.743-15.06L25.608 70.35l4.938-4.177L43.823 79.45l-4.178 4.937zm8.356-9.875L35.483 61.996l4.937-4.178 11.758 11.758-4.177 4.937zm14.795-17.486l-6.44 7.612L45.358 53.64l9.875-8.355 7.382 7.382a3.241 3.241 0 01.181 4.36zm1.734-11.56l-4.558-4.558 4.558-4.558 4.558 4.558-4.558 4.558zm21.066-11.888l-7.386 7.337-9.12-9.12L91.963 8.974a25.017 25.017 0 01-6.367 24.605z" fill="#FFC59E"/></svg>
